X:1
T:The Lord Is My Light
T:John W. Bischoff (1850-1909)
T:The Lord Is My Light
T:Public Domain
T:Public Domain
T:Public Domain
C:John W. Bischoff (1850-1909)
Z:Public Domain
%%score ( 1 2 ) ( 3 4 )
L:1/8
M:2/4
K:G
V:1 treble 
V:2 treble 
V:3 bass 
V:4 bass 
V:1
 D | [DB]2 [Ec][DB] | [CA]2 [CD]2 | [CA]2 [DB][CA] | [B,G]2 z [DG] | [EG]2 [DF][CE] | [B,D]2 (GA) | %7
w: 1.~The|is my light;|then why|should I fear?|By day|and by night|His pre- *|
w: 2.~The|is my light;|though clouds|may a- rise;|Faith, strong-|er than sight,|looks up *|
w: 3.~The|is my light,|the Lord|is my strength;|I know|in His might|I’ll con- *|
w: 4.~The|is my light,|my all|and in all;|There is|in His sight|no dark- *|
 [DB]2 [Dc][DB] | [DA]2 z D | [DB]2 [Ec][DB] | [CA]2 [CD][CD] | [CA]2 [DB][CA] | [B,G]2 z [DG] | %13
w: is near; He|is my|va- tion from|sor- row and|sin; This bless-|èd per-|
w: the skies Where|Je- sus|ev- er in|glo- ry doth|reign: Then how|can I|
w: at length; My|weak- ness|mer- cy He|co- vers with|power, And, walk-|ing by|
w: at all; He|is my|deem- er, my|Sav- ior and|King; With saints|and with|
 [EG]2 [DF][CE] | [B,D]2 [B,G][^CA] | [DB]2 [CA]>[B,G] | [B,G]2 z ||"^Refrain" [DG] | %18
w: sua- sion the|Spir- it brings|in. * *|||
w: ev- er in|dark- ness re-|main? The Lord|is|my|
w: faith, He up-|holds me each|hour. * *|||
w: an- gels His|prais- es I|sing. * *|||
 [Dd]2 [DB][DG] | [DA]2 D2 | [Dd]2 [DB][DG] | [DA]2 z [^DB] | [^DA]2 [DF][DF] | [EG]2 (ED) | %24
w: ||||||
w: light, my joy,|and my|By day and|by night|He leads me|a- long; *|
w: ||||||
w: ||||||
 [^CB]2 [CA]>[CB] | [DA]2 z D | [DB]2 [Ec][DB] | [CA]2 [CD]2 | [CA]2 [DB][CA] | [B,G]2 z [DG] | %30
w: ||||||
w: Lord is my|light, my|and my song;|By day|and by night|He leads|
w: ||||||
w: ||||||
 [EG]2 [DF][CE] | [B,D]2 ([B,G][^CA]) | [DB]2 [CA]>[B,G] | [B,G]3 |] %34
w: ||||
w: me a- long;||||
w: ||||
w: ||||
V:2
 D | x4 | x4 | x4 | x4 | x4 | x2 D2 | x4 | x3 D | x4 | x4 | x4 | x4 | x4 | x4 | x4 | x3 || x | x4 | %19
w: Lord||||||sence||sal-|||||||||||
w: Lord||||||to||for-|||||||||||
w: Lord||||||quer||in|||||||||||
w: Lord||||||ness||Re-|||||||||||
 x2 D2 | x4 | x4 | x4 | x2 B2 | x4 | x3 D | x4 | x4 | x4 | x4 | x4 | x4 | x4 | x3 |] %34
w: |||||||||||||||
w: song;||||The||joy,|||||||||
w: |||||||||||||||
w: |||||||||||||||
V:3
 D, | [G,,G,]2 [G,,G,][G,,G,] | [D,F,]2 [D,F,]2 | [D,F,]2 [D,F,][D,F,] | [G,,G,]2 z [B,,G,] | %5
 [C,G,]2 [C,G,][C,G,] | [G,,G,]2 ([B,,G,][D,F,]) | G,2 [F,A,]G, | [D,F,]2 z D, | %9
 [G,,G,]2 [G,,G,][G,,G,] | [D,F,]2 [D,F,][D,F,] | [D,F,]2 [D,F,][D,F,] | [G,,G,]2 z [B,,G,] | %13
 [C,G,]2 [C,G,][C,G,] | [G,,G,]2 [E,G,][E,G,] | [D,G,]2 [D,F,]>[G,,G,] | [G,,G,]2 z || [G,B,] | %18
 [G,B,]2 [G,,G,][B,,G,] | [D,F,]2 D,2 | [G,B,]2 [G,,G,][B,,G,] | [D,F,]2 z [B,,F,] | %22
 [B,,F,]2 [B,,B,][B,,B,] | [E,B,]2 [E,G,]2 | [A,,G,]2 [A,,G,]>[A,,G,] | [D,F,]2 z D, | %26
 [G,,G,]2 [G,,G,][G,,G,] | [D,F,]2 [D,F,]2 | [D,F,]2 [D,F,][D,F,] | [G,,G,]2 z [B,,G,] | %30
 [C,G,]2 [C,G,][C,G,] | [G,,G,]2 [E,G,]2 | [D,G,]2 [D,F,]>[G,,G,] | [G,,G,]3 |] %34
V:4
 D, | x4 | x4 | x4 | x4 | x4 | x4 | G,2 G, x | x3 D, | x4 | x4 | x4 | x4 | x4 | x4 | x4 | x3 || x | %18
 x4 | x2 D,2 | x4 | x4 | x4 | x4 | x4 | x3 D, | x4 | x4 | x4 | x4 | x4 | x4 | x4 | x3 |] %34

